X:291
T:Slow Scotch
S:Bruce & Emmett's Drummers and Fifers Guide (1862), p. 29
M:2/4
L:1/8
Q:Andante
K:G
%%MIDI program 72
%%MIDI transpose 8
%%MIDI ratio 3 1
D2|G2GA|G2D2|GABA|G2z2|d2ef|g2d2|dedc|B3A|G2GA|G2D2|GABA|G2z2|d2ef|
g2d2|dedc|B3B|dB dB|e2e2|cAcA|d2 c2|GABc|d2g2|BGAF|G2 zd|dBdB|
e2e2|cAcA|d2z2|GABc|d2g2|BGAF|G2zD|G2GA|G2D2|GABA|G2z2|d2ef|g2d2|
dedc|B3A|G2GA|G2D2|GABA|G2z2|d2ef|g2d2|dedc|B2z2|dBdB|e2e2|cAcA|
d2z2|GABc|d2g2|BGAF|G2zd|dBdB|e2e2|cAcA|d3d|GABc|d2g2|B>GAF|
G3D|G2GA|G2D2|GABA|G2z2|d2ef|g2d2|B>GA>F|G2 z2||
